X: 31
T: Missa Cum iocunditate / Kyrie
N: Derived from Rue1007a-Missa_Cum_iocunditate-Kyrie.krn
C: Pierre de la Rue
%%abc-version 2.0
%%abcx-abcm2ps-target-version 5.9.1 (29 Sep 2008)
%%abc-creator hum2abc beta
%%abcx-conversion-date 2019/02/17 08:01:10
%%abc-edited-by Jesse Rodin
%%abc-edited-by Jesse Rodin; Victoria Chang 2011/04/03
%%abcx-initial-encoding-date 2011/04/03/
%%humdrum-veritas 2843271479
%%humdrum-veritas-data 3344935362
%%linebreak <none>
%%barnumbers 0
L: 1/4
M: 3/1
Q: 1/2=120
%%staves [1 2 3 4]
V: 1 clef=treble
V: 2 clef=treble-8
V: 3 clef=treble-8
V: 4 clef=bass
K: C
[V:1] G12- | 
[V:2] G8E4 | 
[V:3] z12 | 
[V:4] z12 | 
[V:1] G4E8 | 
[V:2] G4A6G2 | 
[V:3] z12 | 
[V:4] z12 | 
[V:1] G4A6G2 | 
[V:2] G4z2F4G2 | 
[V:3] d12- | 
[V:4] z12 | 
[V:1] G4z2G2E2G2- | 
[V:2] (3d2B2d2e2d2z2d2 | 
[V:3] d4B8 | 
[V:4] G,12- | 
[V:1] GAB2c2B3GG2 | 
[V:2] dB2GG4z2G2- | 
[V:3] d4e6d2 | 
[V:4] G,4E,8 | 
[V:1] z2G2E2F3EG2- | 
[V:2] GAB2c6B2 | 
[V:3] d4z4z4 | 
[V:4] G,4A,6G,2 | 
[V:1] GABcd2G2z2G2 | 
[V:2] B8z2G2- | 
[V:3] z2d4B2d2e2- | 
[V:4] G,8z2G,2 | 
[V:1] G3ABcd3c2B/A/ | 
[V:2] GAB2G2B2c4 | 
[V:3] e2d2d4z4 | 
[V:4] E,2G,4G,2A,3G, | 
[V:1] B2G2z2G4E2 | 
[V:2] z2B2GABGc4- | 
[V:3] d4B2d2e4- | 
[V:4] G,8z4 | 
[V:1] G2A3GG2z2G2- | 
[V:2] c4B4z2GA | 
[V:3] e4d4z4 | 
[V:4] z4G,6E,2 | 
[V:1] G2E2F2G3AB2- | 
[V:2] BGc4B2B4 | 
[V:3] z4z4d4- | 
[V:4] G,2A,4G,2G,4 | 
[V:1] B2A3GG2A2c2 | 
[V:2] G2A2B4cdef | 
[V:3] d4B2d2e4- | 
[V:4] z2F,2G,2B,2A,4 | 
[V:1] B3GA2B3GA2 | 
[V:2] g2G2z2d2e2f2 | 
[V:3] e2d2d4z2d2- | 
[V:4] G,4z2G,4D,2 | 
[V:1] BGA2B2G2c4 | 
[V:2] d2f2edg2cdef | 
[V:3] d2d2B2d2e4- | 
[V:4] G,2F,2G,2B,2A,4 | 
[V:1] B12 ||  
[V:2] g4g8 ||  
[V:3] e2d2d8 ||  
[V:4] G,12 ||  
[V:1] [M:2/1]G8- | 
[V:2] [M:2/1]z8 | 
[V:3] [M:2/1]z8 | 
[V:4] [M:2/1]z8 | 
[V:1] G4E4 | 
[V:2] c8- | 
[V:3] z8 | 
[V:4] z8 | 
[V:1] G4A4- | 
[V:2] c4A4 | 
[V:3] z8 | 
[V:4] z8 | 
[V:1] A2G2G4 | 
[V:2] c4d4- | 
[V:3] z4G4- | 
[V:4] z8 | 
[V:1] z4G4 | 
[V:2] d2c2c4 | 
[V:3] G4E4 | 
[V:4] z4C,4- | 
[V:1] G2E4DC | 
[V:2] z2c4A2- | 
[V:3] G4A4- | 
[V:4] C,8 | 
[V:1] C4C2DE | 
[V:2] ABc3BAG | 
[V:3] A2G2G4 | 
[V:4] A,,4C,4 | 
[V:1] F4FEDC | 
[V:2] F8- | 
[V:3] z2d4B2 | 
[V:4] D,8- | 
[V:1] B,4C4 | 
[V:2] F4G4 | 
[V:3] d4e4- | 
[V:4] D,4C,4 | 
[V:1] C4z2c2- | 
[V:2] G8 | 
[V:3] e8 | 
[V:4] C,8 | 
[V:1] cBB2A2B2- | 
[V:2] z2G2A2G2 | 
[V:3] d4d4 | 
[V:4] z2G,2D,2G,2- | 
[V:1] BAA2G2A2- | 
[V:2] d3ce2d2 | 
[V:3] z4z2d2- | 
[V:4] G,2F,2C,2F,2 | 
[V:1] AGG4^F2 | 
[V:2] G3BA3G/F/ | 
[V:3] d2B2d4 | 
[V:4] G,4D,4 | 
[V:1] G8 | 
[V:2] E4c4- | 
[V:3] e8- | 
[V:4] z4C,4- | 
[V:1] z4G4 | 
[V:2] c4B4- | 
[V:3] e4d4 | 
[V:4] C,4G,4- | 
[V:1] G2A4A2 | 
[V:2] B2A6 | 
[V:3] d8 | 
[V:4] G,2F,E,F,4 | 
[V:1] B3cd3c | 
[V:2] G6A2- | 
[V:3] z8 | 
[V:4] G,6F,2- | 
[V:1] A4G4 | 
[V:2] A4B2c2 | 
[V:3] z8 | 
[V:4] F,4E,4 | 
[V:1] z2d3Gd2- | 
[V:2] B2G2d3c | 
[V:3] d4B4 | 
[V:4] z4G,4- | 
[V:1] d2cBA4 | 
[V:2] B2A4A2 | 
[V:3] d8 | 
[V:4] G,2F,6 | 
[V:1] G4z4 | 
[V:2] B8 | 
[V:3] e8- | 
[V:4] E,8 | 
[V:1] G4G2F2- | 
[V:2] G3AB2A2- | 
[V:3] e4d4 | 
[V:4] E,3F,G,2D,2- | 
[V:1] F2F2E2G2- | 
[V:2] A4G4- | 
[V:3] d4z4 | 
[V:4] D,E,F,2C,3D, | 
[V:1] G2F4F2 | 
[V:2] G2A6 | 
[V:3] z8 | 
[V:4] E,2F,2D,2F,2 | 
[V:1] E4G4- | 
[V:2] c8 | 
[V:3] G8 | 
[V:4] C,4z2C,2- | 
[V:1] G4G4 | 
[V:2] e8 | 
[V:3] E4G4 | 
[V:4] C,2D,2E,4 | 
[V:1] F8 | 
[V:2] d4c4 | 
[V:3] A8- | 
[V:4] F,2D,2F,4 | 
[V:1] E8- | 
[V:2] c8- | 
[V:3] A4G4 | 
[V:4] C,8- | 
[V:1] E8 ||  
[V:2] c8 ||  
[V:3] G8 ||  
[V:4] C,8 ||  
[V:1] [M:3/1]z12 | 
[V:2] [M:3/1]d6B2d2e2- | 
[V:3] [M:3/1]z12 | 
[V:4] [M:3/1]z4G,6E,2 | 
[V:1] G6E4G2 | 
[V:2] edd2z2c4d2- | 
[V:3] z12 | 
[V:4] G,6A,3G,G,2 | 
[V:1] A3/G/G4^F2G2d2- | 
[V:2] dcB2A4G4 | 
[V:3] d12 | 
[V:4] F,2G,2D,4G,,4- | 
[V:1] dcBAG4z2G2- | 
[V:2] z2d3cBAG3A/B/ | 
[V:3] B8d4 | 
[V:4] G,,4z2G,3F,E,D, | 
[V:1] GA/B/c2B2c2A2d2 | 
[V:2] c3BG4z4 | 
[V:3] e8d4 | 
[V:4] C,4z2C,2F,2G,2 | 
[V:1] dB2GG4z2G2- | 
[V:2] d2dB2GG3A/B/c2- | 
[V:3] d4z4z4 | 
[V:4] D,2G,2G,E,2C,C,4- | 
[V:1] GA/B/c2B2A4d2 | 
[V:2] cBA2G2A2D4 | 
[V:3] z12 | 
[V:4] C,4z2F,3E,D,2 | 
[V:1] dB2GG4z2c2 | 
[V:2] d2dB2GG4G2- | 
[V:3] G8E4 | 
[V:4] G,,2G,2G,E,2C,C,4 | 
[V:1] B2G2GE2CC2F2 | 
[V:2] GAB2c4z2A2 | 
[V:3] G8A3G | 
[V:4] z2E,2E,C,2A,,A,,2D,2 | 
[V:1] D2E4D2C4 | 
[V:2] B2G2c2d2e3d/c/ | 
[V:3] G4z2G4E2 | 
[V:4] G,,2C,4B,,2A,,4 | 
[V:1] z2c3BB2A2d2- | 
[V:2] B2e4d2c2f2- | 
[V:3] G2A3GG2z4 | 
[V:4] G,,2z2z4z2D,2- | 
[V:1] dcB2A2z2d2dB- | 
[V:2] fed3cBAG4 | 
[V:3] z4d6B2 | 
[V:4] D,E,/F,/G,2F,2D,2z2G,2- | 
[V:1] BA/G/A2G3FEDG2- | 
[V:2] z4z2B3c/d/e2- | 
[V:3] d2e3dd2G2E2 | 
[V:4] G,A,/B,/C2B,2G,4C,2- | 
[V:1] G2F2G2E3FGA | 
[V:2] ecd2e3dc2B2- | 
[V:3] G2A3GG4G2- | 
[V:4] C,D,/E,/F,2E,2C,4G,,2- | 
[V:1] B2A3GG4^F2 | 
[V:2] Bc/d/e2d8- | 
[V:3] G2E2G4A3G | 
[V:4] G,,A,,/B,,/C,2B,,2G,,2D,4 | 
[V:1] G12 |]  
[V:2] d12 |]  
[V:3] G12 |]  
[V:4] G,,12 |]  



